modules/feathericon/icons/trash.svg

<?xml version="1.0" encoding="UTF-8"?>
<svg width="12px" height="14px" viewBox="0 0 12 14" version="1.1" xmlns="http://www.w3.org/2000/svg" xmlns:xlink="http://www.w3.org/1999/xlink">
    <!-- Generator: sketchtool 48.1 (47250) - http://www.bohemiancoding.com/sketch -->
    <title>trash</title>
    <desc>Created with sketchtool.</desc>
    <defs></defs>
    <g id="web-app" stroke="none" stroke-width="1" fill="none" fill-rule="evenodd">
        <g id="trash" fill="#000000">
            <path d="M0.000398169263,4 L0.000398169263,3 C0.000398169263,3 0.000398169263,2 1.0856101,2 L4,2 L4,1 C4,1 4,0 5,0 L7,0 C8,0 8,1 8,1 L8,2 L11,2 C12,2 12,3 12,3 L11.9907568,4 C11.9907568,4 12,5 11,5 L11,13 C11,13 11,14 10,14 C10,14 2,14 2,14 C0.909967395,14 1,13 1,13 C1,13 1.0856101,5 1.0856101,5 C0.000398169263,5 0.000398169263,4 0.000398169263,4 Z M1,3 L11,3 L11,4 L1,4 L1,3 Z M2,5 L4.0024599,5 L4.0024599,12 L4.99908891,12 L4.99908891,5 L7,5 L7,12 L8,12 L8,5 L10,5 L10,13 L2,13 L2,5 Z" id="Shape"></path>
        </g>
    </g>
</svg>

<svg width="12" height="14" xmlns="http://www.w3.org/2000/svg"><path d="M0 4V3s0-1 1.086-1H4V1s0-1 1-1h2c1 0 1 1 1 1v1h3c1 0 1 1 1 1l-.01 1S12 5 11 5v8s0 1-1 1H2c-1.09 0-1-1-1-1l.086-8C0 5 0 4 0 4zm1-1h10v1H1V3zm1 2h2.002v7H5V5H7v7h1V5h2v8H2V5z" fill="#000" fill-rule="evenodd"/></svg>
